X: 2085
T: Athena's
R: reel
M: 4/4
K: Eminor
|:AE~ED EGAB|cded cB(3ABA|GD(3DED GDFD|GABc BAGB|
AE~ED EGAB|cdeg aged|c2ec B2eB|1 cBAG AcBc:|2 cBAGAceg||
|:a2ag aged|cABc AEDE|=F2=FE =FGAc|BAGB Aceg|
a2ag aged|cABc A2AA|BAB2 cBc2|1 dcd2 e2eg:|2 dcd2 ecBc||

